X:10
T:Bang Up Hornpipe. TLY.082
R:hp 32
M:C
L:1/8
Q:1/2=90
S:Wm.Tildesley,Swinton,Lancs.1860s.
R:.Hornpipe
O:England.
A:Lancashire.
H:1860.
Z:vmp.Taz Tarry.
K:F
cB| AFAc fcAc| Bdgf edcB| Acfe dcBA| G2G2G2 cB|!
AFAc fcAc| Bdgf edcB| Acfc AcGB| A2 F2F2:|!
|:ef| gfed cBAG| AFGA Bcde| fgaf bagf| e2 c2c2 cB|!
AFAc fcAc| Bdgf edcB| Acfc AcGB| A2 F2F2:|

